packages/core/src/svgs/tokens/branded/UMB.svg

<svg width="24" height="24" viewBox="0 0 24 24" fill="none" xmlns="http://www.w3.org/2000/svg">
<path d="M12 4.05963C12.453 4.05963 12.8236 4.38904 12.9118 4.82433C14.747 5.0008 16.4589 5.72434 17.8824 6.9067C17.9816 6.81598 18.0995 6.74803 18.2277 6.70759C18.3559 6.66714 18.4914 6.65519 18.6248 6.67257C18.758 6.68993 18.886 6.7362 18.9996 6.80813C19.1131 6.88007 19.2096 6.97594 19.2824 7.08904C19.3935 7.26375 19.4456 7.46962 19.4307 7.67619C19.4159 7.88276 19.3351 8.07907 19.2 8.2361C20.3653 9.68186 21.0775 11.4398 21.247 13.2891C21.4588 13.3302 21.6529 13.442 21.7882 13.6126C21.9295 13.7891 22 14.0009 22 14.2184C22 14.742 21.5823 15.1596 21.0647 15.1596C20.9271 15.1607 20.7911 15.1305 20.6667 15.0713C20.5425 15.0123 20.4332 14.9258 20.347 14.8185C20.2588 14.7083 20.1962 14.5799 20.1637 14.4425C20.1311 14.3053 20.1295 14.1624 20.1589 14.0243L17.6 12.7656C17.5157 12.867 17.4107 12.9495 17.292 13.0073C17.1733 13.0651 17.0437 13.097 16.9118 13.1007C16.7798 13.1062 16.6482 13.0826 16.5263 13.0318C16.4044 12.9811 16.295 12.9042 16.2059 12.8067L12.9235 14.1008C12.9471 14.336 12.8941 14.5655 12.7647 14.7537C12.6422 14.9454 12.4505 15.0824 12.2294 15.1361V18.0303C12.4353 18.0773 12.6177 18.2009 12.7471 18.3713C12.892 18.5592 12.9641 18.793 12.9501 19.0299C12.936 19.2666 12.8367 19.4904 12.6707 19.6596C12.5831 19.7485 12.4786 19.8192 12.3635 19.8674C12.2483 19.9156 12.1248 19.9404 12 19.9404C11.8753 19.9404 11.7516 19.9156 11.6366 19.8674C11.5214 19.8192 11.417 19.7485 11.3294 19.6596C11.1529 19.4773 11.0471 19.2244 11.0471 18.9714C11.0471 18.5126 11.3588 18.1361 11.7705 18.0303V15.1361C11.553 15.0772 11.3588 14.9479 11.2295 14.7537C11.1029 14.5632 11.0487 14.3337 11.0764 14.1067L7.87061 12.8302C7.78844 12.9489 7.67975 13.0469 7.55315 13.1164C7.42653 13.1858 7.28549 13.2248 7.14119 13.2302C6.99669 13.2353 6.85305 13.2059 6.72214 13.1445C6.59122 13.0832 6.47678 12.9916 6.38825 12.8773L3.84708 14.0478C3.87136 14.1841 3.86607 14.3238 3.83157 14.4579C3.79706 14.5919 3.73414 14.7168 3.64707 14.8244C3.56458 14.9236 3.46231 15.0046 3.34678 15.0623C3.23124 15.1198 3.10498 15.1527 2.97604 15.1587C2.84711 15.1648 2.71831 15.1441 2.59786 15.0975C2.47741 15.0511 2.36796 14.9802 2.27648 14.889C2.18834 14.8011 2.11852 14.6966 2.07105 14.5814C2.0236 14.4663 1.99945 14.3429 2.00001 14.2184C2.00001 14.0009 2.07649 13.7891 2.21178 13.6185C2.34707 13.442 2.54119 13.3302 2.75296 13.2891C2.92943 11.4302 3.6353 9.6949 4.80001 8.24787C4.70315 8.13574 4.63342 8.00283 4.59621 7.85941C4.55902 7.716 4.55535 7.56594 4.58551 7.42088C4.61565 7.27581 4.67881 7.13966 4.77007 7.02294C4.86135 6.90623 4.97826 6.8121 5.11178 6.74786C5.27606 6.67331 5.45876 6.64916 5.63677 6.67848C5.81477 6.7078 5.98008 6.78926 6.11178 6.91257C7.52206 5.73057 9.25685 5.00264 11.0882 4.82433C11.1353 4.60669 11.247 4.41257 11.4118 4.27728C11.5765 4.1361 11.7823 4.05963 12 4.05963ZM11.5235 5.0008C11.5235 5.13611 11.5706 5.25964 11.6647 5.35375C11.7086 5.39912 11.7612 5.43519 11.8193 5.45982C11.8773 5.48446 11.9398 5.49716 12.0029 5.49716C12.066 5.49716 12.1285 5.48446 12.1867 5.45982C12.2448 5.43519 12.2973 5.39912 12.3412 5.35375C12.409 5.28503 12.4553 5.19794 12.4741 5.10322C12.493 5.00852 12.4837 4.91035 12.4475 4.82086C12.4112 4.73137 12.3495 4.65448 12.2699 4.59969C12.1904 4.5449 12.0965 4.51462 12 4.51257C11.9362 4.51298 11.8731 4.52622 11.8145 4.55148C11.7558 4.57674 11.703 4.61352 11.6588 4.65963C11.5686 4.75264 11.518 4.87708 11.5177 5.00669L11.5235 5.0008ZM14.9118 8.87139L17.5882 7.78904C17.5529 7.55374 17.5882 7.38904 17.6294 7.28905C16.288 6.1568 14.635 5.45746 12.8882 5.28316C12.8765 5.31845 12.8295 5.47728 12.7 5.62434L14.9177 8.87139H14.9118ZM9.14119 8.85375L11.3 5.6361C11.2144 5.53216 11.1504 5.41217 11.1117 5.28316C9.37064 5.45374 7.71766 6.15374 6.3706 7.28905C6.40589 7.38904 6.4353 7.57139 6.41767 7.7361L9.14119 8.85375ZM12.2235 9.34198C12.4589 9.38904 12.6648 9.5361 12.7999 9.72428L14.4882 9.04787L12.3294 5.88905L12.2294 5.92433V9.3361H12.2235V9.34198ZM11.2589 9.72428C11.3765 9.54786 11.5647 9.41257 11.7705 9.35374V5.92433L11.6824 5.88905L9.56471 9.03609L11.2589 9.72428ZM18.5059 8.09492C18.7705 8.09492 18.9882 7.87728 18.9882 7.60669C18.9886 7.47696 18.9378 7.35229 18.8471 7.25963C18.8031 7.21335 18.7502 7.17651 18.6915 7.15132C18.6329 7.12614 18.5697 7.11315 18.5059 7.11315C18.4421 7.11315 18.3789 7.12614 18.3202 7.15132C18.2616 7.17651 18.2086 7.21335 18.1647 7.25963C18.119 7.30623 18.083 7.36141 18.0589 7.42198C18.0346 7.48256 18.0226 7.54733 18.0236 7.61257C18.0236 7.87728 18.2411 8.09492 18.5059 8.09492ZM5.49413 8.09492C5.75884 8.09492 5.97649 7.87728 5.97649 7.60669C5.97682 7.47696 5.9261 7.35229 5.83531 7.25963C5.79143 7.21427 5.73887 7.1782 5.68076 7.15356C5.62266 7.12892 5.56018 7.11623 5.49707 7.11623C5.43396 7.11623 5.37148 7.12892 5.31338 7.15356C5.25527 7.1782 5.20271 7.21427 5.15883 7.25963C5.11317 7.30623 5.07718 7.36141 5.05295 7.42198C5.02872 7.48256 5.01672 7.54733 5.01767 7.61257C5.01767 7.87728 5.22942 8.09492 5.49413 8.09492ZM5.49413 8.55375C5.38762 8.55193 5.28221 8.53204 5.18237 8.49493C4.05789 9.87059 3.36785 11.5496 3.20001 13.3184C3.27648 13.3361 3.48825 13.4126 3.65884 13.6303L6.20001 12.4537C6.17201 12.29 6.18652 12.1218 6.24213 11.9652C6.29775 11.8086 6.39262 11.669 6.51766 11.5596C6.64136 11.4537 6.791 11.3827 6.95123 11.3538C7.11146 11.3248 7.2765 11.3391 7.42943 11.3949L8.87648 9.24786L6.24707 8.17728C6.11765 8.36551 5.83531 8.56552 5.50001 8.56552V8.55963L5.49413 8.55375ZM16.5588 11.2714C16.715 11.2076 16.8857 11.1888 17.0521 11.2168C17.2183 11.2448 17.3734 11.3188 17.5 11.4302C17.6282 11.5418 17.7238 11.6861 17.7767 11.8476C17.8295 12.0092 17.8375 12.1821 17.8 12.3479L20.3529 13.6067C20.5176 13.4067 20.7235 13.3302 20.8 13.3125C20.6299 11.5478 19.9399 9.8732 18.8176 8.5008C18.7177 8.5361 18.2 8.70081 17.7823 8.20669L15.1824 9.25963L16.5588 11.2714ZM7.81178 11.6538L7.87061 11.7303L11.0882 10.4243C11.0648 10.3066 11.0823 10.1949 11.0882 10.1478L9.31175 9.41846L7.80589 11.6538H7.81178ZM16.0706 11.7007C16.105 11.6427 16.1444 11.5875 16.1882 11.536L14.7529 9.4361L12.9706 10.1537C12.9765 10.1949 12.9883 10.3185 12.9706 10.4302L16.0706 11.7007ZM12.0294 10.7949C12.1651 10.7949 12.2953 10.7411 12.3913 10.645C12.4873 10.549 12.5412 10.4189 12.5412 10.2832C12.5412 10.1474 12.4873 10.0173 12.3913 9.92124C12.2953 9.8253 12.1651 9.77135 12.0294 9.77135C11.9 9.77135 11.7705 9.83024 11.6765 9.92439C11.5828 10.0203 11.5301 10.1491 11.5294 10.2832C11.5294 10.5773 11.7648 10.7949 12.0294 10.7949ZM11.2411 13.6715C11.4354 13.3949 11.6824 13.3184 11.7705 13.3009V11.2125C11.5647 11.1538 11.3824 11.0244 11.2589 10.8478L8.03531 12.1537C8.05295 12.2715 8.03531 12.3596 8.03531 12.4007L11.2411 13.6715ZM12.2294 13.3009C12.3176 13.3243 12.5588 13.389 12.7588 13.6715L15.9882 12.395C15.953 12.2772 15.953 12.142 15.953 12.142L12.7999 10.8478C12.6648 11.0419 12.4589 11.1773 12.2294 11.2302V13.3009ZM16.8882 12.642C16.9828 12.6418 17.075 12.6131 17.153 12.5597C17.2327 12.5059 17.2948 12.4297 17.3314 12.3408C17.3681 12.2518 17.3775 12.154 17.3589 12.0597C17.3387 11.9659 17.2916 11.88 17.2235 11.8126C17.1578 11.7451 17.0732 11.699 16.981 11.6802C16.8886 11.6612 16.7928 11.6705 16.7059 11.7066C16.6174 11.7427 16.5418 11.8041 16.4883 11.8832C16.4371 11.964 16.4106 12.058 16.4118 12.1537C16.4118 12.4244 16.6236 12.642 16.8882 12.642ZM7.11178 12.7713C7.38236 12.7713 7.59413 12.5538 7.59413 12.289C7.59507 12.2238 7.58307 12.159 7.55884 12.0985C7.5346 12.0378 7.49862 11.9827 7.45295 11.9361C7.40907 11.8907 7.35652 11.8546 7.2984 11.83C7.2403 11.8053 7.17784 11.7927 7.11471 11.7927C7.0516 11.7927 6.98914 11.8053 6.93103 11.83C6.87293 11.8546 6.82036 11.8907 6.77648 11.9361C6.73081 11.9827 6.69482 12.0378 6.6706 12.0985C6.64636 12.159 6.63438 12.2238 6.63531 12.289C6.63531 12.5538 6.84707 12.7713 7.11178 12.7713ZM21.0647 14.7066C21.3353 14.7066 21.5471 14.4891 21.5471 14.2184C21.5468 14.0888 21.4961 13.9644 21.4058 13.8714C21.3615 13.8259 21.3084 13.7896 21.2499 13.7649C21.1913 13.7402 21.1283 13.7276 21.0647 13.7276C21.0011 13.7276 20.9382 13.7402 20.8796 13.7649C20.821 13.7896 20.7679 13.8259 20.7235 13.8714C20.6318 13.9659 20.5811 14.0927 20.5823 14.2243C20.5823 14.4891 20.8059 14.7066 21.0647 14.7066ZM12 14.7066C12.2647 14.7066 12.4764 14.4891 12.4764 14.2184C12.4753 14.0908 12.4247 13.9685 12.3353 13.8773C12.2916 13.8329 12.2393 13.7974 12.1818 13.7734C12.1242 13.7493 12.0625 13.7369 12 13.7369C11.9376 13.7369 11.8758 13.7493 11.8183 13.7734C11.7607 13.7974 11.7085 13.8329 11.6647 13.8773C11.5754 13.9685 11.5247 14.0908 11.5235 14.2184C11.5235 14.4891 11.7353 14.7066 12 14.7066ZM2.93531 14.7066C3.19413 14.7066 3.4059 14.4891 3.4059 14.2184C3.40781 14.0895 3.35924 13.965 3.2706 13.8714C3.22672 13.826 3.17417 13.7899 3.11606 13.7653C3.05796 13.7406 2.99548 13.728 2.93237 13.728C2.86926 13.728 2.80678 13.7406 2.74868 13.7653C2.69057 13.7899 2.63801 13.826 2.59413 13.8714C2.54847 13.918 2.51248 13.9731 2.48825 14.0338C2.46401 14.0943 2.45202 14.1591 2.45295 14.2243C2.45295 14.4891 2.66472 14.7066 2.93531 14.7066ZM12 19.4714C12.2765 19.4714 12.5 19.2478 12.5 18.9714C12.5009 18.8353 12.448 18.7042 12.3529 18.6067C12.3068 18.5599 12.2519 18.5229 12.1912 18.4976C12.1307 18.4723 12.0656 18.4594 12 18.4596C11.9298 18.4494 11.858 18.4546 11.79 18.475C11.7219 18.4953 11.6591 18.5301 11.6058 18.5772C11.5513 18.6261 11.508 18.6859 11.4785 18.7529C11.4491 18.8199 11.4344 18.8924 11.4354 18.9655C11.4366 19.038 11.4531 19.1093 11.4834 19.1752C11.5137 19.241 11.5575 19.2999 11.6117 19.3479C11.6642 19.3946 11.7258 19.4297 11.7928 19.451C11.8596 19.4723 11.9303 19.4793 12 19.4714Z" fill="#0E92DF"/>
</svg>

<svg xmlns="http://www.w3.org/2000/svg" width="24" height="24" fill="none" viewBox="0 0 24 24">
    <path fill="#0E92DF" d="M12 4.06c.453 0 .824.329.912.764 1.835.177 3.547.9 4.97 2.083a.923.923 0 0 1 1.4.182.965.965 0 0 1-.082 1.147 9.4 9.4 0 0 1 2.047 5.053.9.9 0 0 1 .541.324.96.96 0 0 1 .212.605.935.935 0 0 1-1.333.853.9.9 0 0 1-.32-.252.95.95 0 0 1-.188-.795L17.6 12.766a.93.93 0 0 1-1.394.04l-3.282 1.295a.97.97 0 0 1-.16.653.88.88 0 0 1-.535.382v2.894a.9.9 0 0 1 .518.341.98.98 0 0 1-.076 1.289.943.943 0 0 1-1.342 0 1 1 0 0 1-.282-.689c0-.458.312-.835.723-.94v-2.895a.937.937 0 0 1-.694-1.03L7.871 12.83a.93.93 0 0 1-.73.4.91.91 0 0 1-.753-.353l-2.54 1.17a.97.97 0 0 1-.2.777.93.93 0 0 1-1.05.274.93.93 0 0 1-.527-.517.97.97 0 0 1 .14-.963.9.9 0 0 1 .542-.329A9.4 9.4 0 0 1 4.8 8.248a.965.965 0 0 1 .312-1.5.91.91 0 0 1 1 .165 9.1 9.1 0 0 1 4.976-2.089.97.97 0 0 1 .324-.547A.9.9 0 0 1 12 4.06m-.476.94a.49.49 0 0 0 .479.497.47.47 0 0 0 .338-.143.494.494 0 0 0-.341-.841.48.48 0 0 0-.341.147.5.5 0 0 0-.141.347zm3.388 3.871 2.676-1.082c-.035-.235 0-.4.041-.5a8.7 8.7 0 0 0-4.74-2.006c-.012.035-.06.194-.189.341l2.218 3.247zm-5.77-.017L11.3 5.636a1 1 0 0 1-.188-.353A8.67 8.67 0 0 0 6.37 7.29c.035.1.064.282.047.447zm3.082.488a.95.95 0 0 1 .576.382l1.688-.676-2.159-3.159-.1.035v3.412h-.005zm-.965.382a.93.93 0 0 1 .511-.37v-3.43l-.088-.035-2.117 3.147zm7.247-1.63a.486.486 0 0 0 .482-.487.494.494 0 0 0-.482-.494.47.47 0 0 0-.341.147.5.5 0 0 0-.141.353c0 .264.217.482.482.482m-13.012 0a.486.486 0 0 0 .482-.487.49.49 0 0 0-.295-.453.47.47 0 0 0-.522.106.5.5 0 0 0-.141.353.48.48 0 0 0 .476.482m0 .46a1 1 0 0 1-.312-.06A8.96 8.96 0 0 0 3.2 13.319a.88.88 0 0 1 .459.312L6.2 12.454a.97.97 0 0 1 .318-.894.92.92 0 0 1 .911-.165l1.447-2.147-2.629-1.07a.95.95 0 0 1-.747.388V8.56zM16.56 11.27a.91.91 0 0 1 .941.16.94.94 0 0 1 .3.917l2.553 1.259a.9.9 0 0 1 .447-.294A8.96 8.96 0 0 0 18.818 8.5a.92.92 0 0 1-1.036-.294l-2.6 1.053zm-8.747.383.059.076 3.217-1.306c-.023-.117-.006-.23 0-.276l-1.776-.73-1.506 2.236zm8.259.047q.051-.088.117-.165l-1.435-2.1-1.782.718c.005.04.017.165 0 .276zm-4.042-.906a.511.511 0 1 0 0-1.024.51.51 0 0 0-.5.512c0 .294.236.512.5.512m-.788 2.877a.88.88 0 0 1 .53-.371v-2.088a.94.94 0 0 1-.512-.365l-3.224 1.306c.018.117 0 .206 0 .247zm.988-.371c.089.023.33.088.53.37l3.23-1.276c-.036-.118-.036-.253-.036-.253L12.8 10.848a.96.96 0 0 1-.57.382zm4.66-.659a.49.49 0 0 0 .47-.582.49.49 0 0 0-.378-.38.48.48 0 0 0-.493.203.5.5 0 0 0-.076.27c0 .271.212.489.476.489m-9.777.13a.48.48 0 0 0 .482-.483.49.49 0 0 0-.296-.459.47.47 0 0 0-.522.106.5.5 0 0 0-.14.353.48.48 0 0 0 .476.482m13.953 1.935c.27 0 .482-.218.482-.489a.5.5 0 0 0-.297-.453.48.48 0 0 0-.526.106.488.488 0 0 0 .341.835m-9.065 0a.48.48 0 0 0 .476-.489.49.49 0 0 0-.294-.445.47.47 0 0 0-.517.104.5.5 0 0 0-.141.341.48.48 0 0 0 .476.489m-9.065 0a.48.48 0 0 0 .47-.489.5.5 0 0 0-.134-.347.47.47 0 0 0-.677 0 .5.5 0 0 0-.141.353.48.48 0 0 0 .482.483M12 19.47a.5.5 0 0 0 .5-.5.52.52 0 0 0-.147-.364.5.5 0 0 0-.353-.147.49.49 0 0 0-.521.293.51.51 0 0 0 .133.595.5.5 0 0 0 .388.123"/>
</svg>
